X:116
T:Vous Reviendrez
R:Valse
C:Martin Cayla
S:L'accordon en Auvergne
N:Original H-Dur
M:3/4
L:1/8
K:G
D2 G3  B|d4 ~B2 |GBdBeB|d4 ~B2|GBdedB|\
c4 ~A2 |1 FAcAdA|B4 ~G2:|2 FAcAdF |G6:||
|:ABcBcA|GABABG|FGABAG|FG d4|ABcBcA|\
GABABG|FGAdAd|1 G6:|2 G4||
|:GA|GAGFGA|GBAGAB|cBAGAc|BAG2 GA|\
GAGFGA|GBAGAB|cABGAF|1 G4:|2 "D.C."G6||
"coda" .G2  Bcde|dBdcAF|.G2 z2 .F2|G2||
